symbolic/64x64/apps/spacefm.svg

<svg xmlns="http://www.w3.org/2000/svg" width="64" height="64" version="1"><path style="opacity:.2" d="M4 56v2c0 1.662 1.338 3 3 3h50c1.662 0 3-1.338 3-3v-2c0 1.662-1.338 3-3 3H7c-1.662 0-3-1.338-3-3z"/><rect style="fill:#4385ce" width="56" height="56" x="4" y="4" rx="3" ry="3"/><path style="opacity:.2" d="M14 33h4v16h10v-8h8v8h10V33h4L32 15z"/><path style="fill:#fff" d="M14 32h4v16h10v-8h8v8h10V32h4L32 14z"/><path style="opacity:.2;fill:#fff" d="M7 4C5.338 4 4 5.338 4 7v1c0-1.662 1.338-3 3-3h50c1.662 0 3 1.338 3 3V7c0-1.662-1.338-3-3-3H7z"/></svg>

<svg xmlns="http://www.w3.org/2000/svg" width="64" height="64" version="1">
 <path style="opacity:0.2" d="m 4,56 0,2 c 0,1.662 1.338,3 3,3 l 50,0 c 1.662,0 3,-1.338 3,-3 l 0,-2 c 0,1.662 -1.338,3 -3,3 L 7,59 C 5.338,59 4,57.662 4,56 Z"/>
 <rect style="fill:#4385ce" width="56" height="56" x="4" y="4" rx="3" ry="3"/>
 <path style="opacity:0.2" d="m 14,33 4,0 0,16 10,0 0,-8 8,0 0,8 10,0 0,-16 4,0 -18,-18 z"/>
 <path style="fill:#ffffff" d="m 14,32 4,0 0,16 10,0 0,-8 8,0 0,8 10,0 0,-16 4,0 -18,-18 z"/>
 <path style="opacity:0.2;fill:#ffffff" d="M 7 4 C 5.338 4 4 5.338 4 7 L 4 8 C 4 6.338 5.338 5 7 5 L 57 5 C 58.662 5 60 6.338 60 8 L 60 7 C 60 5.338 58.662 4 57 4 L 7 4 z"/>
</svg>
